lib/flags/s/CHN.svg

<svg xmlns="http://www.w3.org/2000/svg" fill="none" viewBox="0 0 16 12"><mask id="CHN_svg__a" width="16" height="12" x="0" y="0" mask-type="alpha" maskUnits="userSpaceOnUse"><path fill="#fff" d="M0 0H16V12H0z"/></mask><g fill-rule="evenodd" clip-rule="evenodd" mask="url(#CHN_svg__a)"><path fill="#E31D1C" d="M0 0H16V12H0V0Z"/><path fill="#FECA00" d="M3.55698 4.87768 1.61033 6.4034 2.35366 4.09609 1.05548 2.89633 2.81328 2.83146 3.55698.974243 4.30067 2.83146H6.05548L4.7603 4.09609 5.35031 6.4034 3.55698 4.87768zM7.50817 3.08597 6.69131 3.57911 6.87763 2.6168 6.19739 1.89661 7.11848 1.85766 7.50817.959106 7.89787 1.85766H8.81739L8.13871 2.6168 8.34303 3.57911 7.50817 3.08597z"/><path fill="#FECA00" d="M8.50817 5.08597L7.69131 5.57911L7.87763 4.6168L7.19739 3.89661L8.11848 3.85766L8.50817 2.95911L8.89787 3.85766H9.81739L9.13871 4.6168L9.34303 5.57911L8.50817 5.08597Z"/><path fill="#FECA00" d="M7.50817 7.08597L6.69131 7.57911L6.87763 6.6168L6.19739 5.89661L7.11848 5.85766L7.50817 4.95911L7.89787 5.85766H8.81739L8.13871 6.6168L8.34303 7.57911L7.50817 7.08597Z"/><path fill="#FECA00" d="M5.50817 8.08597L4.69131 8.57911L4.87763 7.6168L4.19739 6.89661L5.11848 6.85766L5.50817 5.95911L5.89787 6.85766H6.81739L6.13871 7.6168L6.34303 8.57911L5.50817 8.08597Z"/></g></svg>

<svg xmlns="http://www.w3.org/2000/svg" fill="none" viewBox="0 0 16 12"><mask id="CHN_svg__a" width="16" height="12" x="0" y="0" maskUnits="userSpaceOnUse"><path fill="#fff" d="M0 0h16v12H0z"/></mask><g fill-rule="evenodd" clip-rule="evenodd" mask="url(#CHN_svg__a)"><path fill="#E31D1C" d="M0 0h16v12H0V0z"/><path fill="#FECA00" d="M3.557 4.878L1.61 6.403l.744-2.307-1.299-1.2 1.758-.065.744-1.857.744 1.857h1.754L4.76 4.096l.59 2.307-1.793-1.525zm3.951-1.792l-.817.493.187-.962-.68-.72.92-.04.39-.898.39.899h.92l-.68.759.205.962-.835-.493z"/><path fill="#FECA00" d="M8.508 5.086l-.817.493.187-.962-.68-.72.92-.04.39-.898.39.899h.92l-.68.759.205.962-.835-.493z"/><path fill="#FECA00" d="M7.508 7.086l-.817.493.187-.962-.68-.72.92-.04.39-.898.39.899h.92l-.68.759.205.962-.835-.493z"/><path fill="#FECA00" d="M5.508 8.086l-.817.493.187-.962-.68-.72.92-.04.39-.898.39.899h.92l-.68.759.205.962-.835-.493z"/></g></svg>
